X:047 
T:Donegal Rambler (reel), The
T:Donegal Traveller
S:Bobby Gardiner
F:file ID: cre.5/047don_r
B:CRE5.140 (FÃÂÃÂÃÂÃÂ¡naÃÂÃÂÃÂÃÂ­ Thir Chonaill)
L:1/8
Q:180
M:C
R:reel
K:A
A2EA CAEA|A2cA GdBG|A2EA CABc|dfed cABc|
A2EA CAEA|A2cA GdBG|A2EA CABc|dfed cAA ||
c|e^def ecAc|efec dBBc|eAcA eAcA|efed cAAc|
e^def ecAc|efec dBBc|d2ec dcBA|GBed cABG|A8|]

%%%

